X:1
T:Dum Transisset
T:Oliver Hayes
T:Dum Transisset
C:Oliver Hayes
%%score [ 1 2 3 4 ]
L:1/8
Q:1/4=200
M:none
K:Bb
V:1 treble nm="Soprano"
V:2 treble nm="Alto"
V:3 treble-8 nm="Tenor"
V:4 bass nm="Bass"
V:1
 z11 ||[M:4/2] F4 G4 A8 | B2 c2 d2 e2 f8 | e4 d2 c2 B8- | B4 z4 A8 | B4 c4 d8 | G8 A8 | %7
w: |sab- * *|* * * * ba-|* * * tum,|_ Ma-||ri- *|
 B6 d2 c4 B4 | d8 z8 | f4 e4 d4 c4 | B4 A4 G8 | F4 G4 A4 B4 | c8 d8 | e8 d4 z4 | f12 e2 d2 | %15
w: |a|Mag- * * *|* * da-|le- * * *||* ne,|Ma- ri- *|
 c4 d4 e8 | d4 c4 B4 A4 | G8 c8 | d4 e4 f4 e4 | d4 e4 f8- | f4 e4 d8 | e4 d4 c4 d4 | %22
w: * a Mag-||* da-|le- * * *|* * ne,|_ et Ma-|ri- * * *|
 (3e4 d4 c4 B8 | z8 B8 | c8 d8 | e8 B8 | G8 B8 | G16 | z8 c8 | d8 d4 e4 | f4 F4 G8 | %31
w: * * * a,|Ja-|co- *|bi, et|Sa- lo-|me,|et|Sa- lo- *|* me e-|
 (3A4 B4 c4 d4 e4 | f8 B4 A4 | G8 F8 | z8 A8 | B8 c8 | d4 D4 E8 | D4 E4 F8 | (3G4 A4 B4 c4 d4 | %39
w: me- * * * *|runt, e- *|me- runt|a-||* * ro-|* * ma-||
 B8 F8 | G16 | z16 | B8 G8 | A16 | B8 c8 | d8 B2 c2 d2 e2 | f4 e4 d4 c4 | B4 A4 G8- | G8 B8 | %49
w: |ta.||Ut _|ve-|* ni-|en- tes _ _ _|un- * * *|* * ge-|* rent|
 c8 d4 e4 | f16 | e16 | d16- | d8 z8 | z16 | z16 | z16 | z8 F8- | F8 B8 | (3A4 B4 c4 d4 e4 | %60
w: _ _ _|Je-||sum.|_||||Al-|* le-|lu- * * * *|
 f6 e2 d4 c4 | (3B4 A4 G4 F8 | c4 d4 e8 | d4 e4 (3f4 e4 d4 | c8 B8 | F8 (3G4 A4 B4 | c8 d8 | %67
w: |* * * ia,|al- * *|le- * lu- * *|* ia,|al- le- * *||
 e8 d8- | d16 | c16 |] %70
w: * lu-||ia.|
V:2
 z11 ||[M:4/2] D8 F4 E4 | D16 | G,8 z8 | D4 E4 F8 | F8 F4 E4 | D4 E4 F8- | F8 z8 | F12 G4 | A8 B8 | %10
w: |sab- * *|ba-|tum,|Ma- * ri-|a Mag- da-|le- * ne,|_|Ma- *|ri- *|
 G8 z8 | D8 F8 | A4 G4 F8 | G4 E4 F4 G4 | A4 G4 F8- | F8 G8 | z8 D8 | E8 F8- | F4 G4 A8 | G8 F8 | %20
w: a|Mag- da-|le- * *||* * ne,|_ _|et|Ma- ri-||* a,|
 z8 F8 | G8 A8 | B8 F8 | E8 F8 | F16 | E8 D8 | z8 D8 | E2 F2 G4 D8 | C8 F4 E4 | D8 D8 | C8 E8 | %31
w: et|Ma- *|* ri-|a, Ja-|co-|* bi,|et|Sa- * * lo-|me, et _|Sa- lo-|* me|
 F8 F4 G4 | A2 G2 F2 E2 D8 | E8 F8 | G8 F4 E4 | D8 F4 E4 | D8 G,8 | z8 D8 | E8 F8 | %39
w: e- me- *|* * * * runt,|e- me-|||* runt|a-||
 G4 G,4 A,2 B,2 C2 D2 | E8 D8 | z8 F8 | D8 E8 | F16 | G8 G8 | F8 G8 | F8 G8 | F8 E8 | D8 G8 | %49
w: * * ro- * * *|ma- ta.|Ut|_ ve-||ni- en-|* tes,|ut ve-|ni- en-|tes un-|
 A8 A8 | A4 B4 c8 | G16 | (3G4 F4 E4 D8 | ^F8 z8 | z8 F8- | F8 B8- | B8 A2 G2 F2 E2 | D12 C4 | %58
w: * ge-|* rent Je-|sum,|Je- * * *|sum.|Al-|* le-|* lu- * * *||
 B,2 C2 D2 E2 F4 G4 | A8 F8 | C8 D8 | E8 D8 | F8 B8 | F16 | A4 G4 F4 E4 | D8 (3E4 F4 G4 | F16 | %67
w: |ia, al-|le- *|* lu-|ia, al-|le-|lu- * * *|ia, al- * *|le-|
 G16 | F16- | F16 |] %70
w: lu-|ia.|_|
V:3
 !stemless!F2 !stemless!G2 !stemless!B2 !stemless!B2 !stemless!B3 ||[M:4/2] B8 c8 | B8 B8 | B8 G8 | %4
w: Dum trans- * si- set|sab- *|* ba-|tum, _|
 B8 c8 | B8 A8 | B8 A8 | B8 G8 | B8 d8 | c8 d8 | e8 d8 | d8 c8 | c8 B8 | c8 d8 | c8 d8 | c8 B8 | %16
w: _ _|* Ma-|* ri-||* a|_ _|* Mag-|da- *|le- *||||
 A8 B8 | B8 A8 | B8 c8 | B8 c8 | B8 A8 | B8 A8 | G8 F8 | G8 F8 | A8 B8 | G8 G8 | G16 | G8 B8 | %28
w: |ne, _|et Ma-|ri- a,|_ _|||Ja- *|co- *|* bi,|et|Sa- lo-|
 A8 c8 | B8 B8 | A8 B8 | A8 B8 | c8 d8 | c8 d8 | c8 c8 | B8 A8 | B8 c8 | B8 A8 | B8 A8 | G8 A8 | %40
w: me, _|_ _|* e-|me- *||runt _|_ a-|ro- ma-||||* ta.|
 G8 B8 | G8 A8 | B8 c8 | d8 c8 | d8 e8 | d8 d8 | c8 B8 | B8 c8 | d8 e8 | c8 d8 | c8 A8 | c8 B8- | %52
w: _ Ut|_ ve-|* ni-|en- *||tes un-|ge- *|rent _|_ _||* Je-||
 B8 B8 | A8 F8- | F8 B8 | A8 F8 | G8 A8 | G8 B8 | d8 d8 | c8 B8 | A8 F8 | G8 B8 | A8 G8 | B8 d8 | %64
w: * sum.|_ Al-|* le-|lu- *|ia, _|_ al-|* le-|lu- *|ia, al-|le- *|lu- *|ia, _|
 c8 d8 | B8 B8 | A8 A8 | c8 B8 | B8 B8 | A16 |] %70
w: _ _|* al-|* le-||lu- ia.|_|
V:4
 z11 ||[M:4/2] B,,8 F,8 | G,8 B,8 | E,12 F,4 | G,8 F,4 E,4 | D,16 | z8 D,4 C,4 | B,,8 E,8 | %8
w: |sab- *||ba- *||tum,|Ma- *|ri- *|
 B,,4 C,4 D,4 E,4 | F,6 A,2 G,8 | z8 B,8- | B,8 A,4 G,4 | F,4 E,4 D,4 C,4- | C,8 B,,8 | F,8 B,8 | %15
w: |* * a|Mag-|* da- *|le- * * *|* ne,|Ma- ri-|
 A,4 G,2 F,2 E,8 | F,8 G,4 F,4 | E,4 D,4 F,8 | z8 F,8 | G,8 A,8 | B,8 F,8 | E,8 F,8 | E,8 D,8 | %23
w: a _ _ Mag-|da- le- *|* * ne,|et|Ma- *|* ri-|a, Ja-|co- bi,|
 (3C,4 D,4 E,4 (3D,4 C,4 B,,4 | (3A,,4 G,,4 F,,4 B,,8 | C,8 z8 | E,4 C,4 G,,4 B,,4 | %27
w: Ja- * * co- * *|* * * bi,|_|et _ Sa- *|
 C,8 B,,2 C,2 D,2 E,2 | F,4 G,4 A,8 | B,4 A,4 G,8 | F,8 E,4 D,4 | C,8 B,,8 | A,,8 G,,8 | z8 D,8 | %34
w: * lo- * * *|* * me,|et Sa- lo-|me e- *|me- *|* runt|a-|
 E,8 F,8 | G,4 G,,4 A,,8 | (3G,,4 A,,4 B,,4 C,8 | B,,4 C,4 (3D,4 E,4 F,4 | G,8 F,8 | E,8 D,8 | %40
w: |* * ro-||ma- * * * *|ta, a-|ro- ma-|
 (3C,4 B,,4 A,,4 G,,8 | z16 | G,4 F,4 E,8 | (3D,4 C,4 B,,4 A,,8 | G,,8 z8 | B,8 G,8 | A,8 B,4 C4 | %47
w: * * * ta.||Ut _ ve-|ni- * * en-|tes,|ut _|ve- ni- *|
 D8 C8 | B,4 A,4 G,8 | F,4 E,4 D,8 | F,8 z8 | C,8 G,8- | G,16 | D,8 z8 | z16 | F,8 D,8- | %56
w: en- *|* * tes|un- * ge-|rent|Je- *||sum.||Al- le-|
 D,4 E,4 F,8 | B,8 B,,8- | B,,16 | (3F,4 G,4 A,4 B,8 | F,8 B,,8 | E,8 B,,2 C,2 D,2 E,2 | %62
w: |lu- ia,|_|al- * * *|le- lu-|ia, al- * * *|
 F,8 (3E,4 D,4 C,4 | B,,16 | F,4 G,2 A,2 B,8 | B,,8 E,8 | F,4 E,4 D,8 | C,2 D,2 E,2 F,2 G,4 A,4 | %68
w: * le- * *||lu- * * *|ia, al-|le- * *|lu- * * * * *|
 B,8 B,,8 | F,16 |] %70
w: * ia.|_|

